!!!!SEGMENT: Lps2001-Esto_nobis.krn
!!!id: Lps2001
!!!AGN: Motet
!!!SCT: Lowinsky (1968)
!!!voices: 5
!!!COM: Lupus Hellinck
!!!OTL: Esto nobis
**kern	**kern	**kern	**kern	**kern
*part5	*part4	*part3	*part2	*part1
*staff5	*staff4	*staff3	*staff2	*staff1
*I"Bassus	*I"Tenor II	*I"Tenor I	*I"Altus	*I"Superius
*I'B	*I'T. II	*I'T. I	*I'A	*I'S
*clefF4	*clefGv2	*clefGv2	*clefGv2	*clefG2
*k[]	*k[]	*k[]	*k[]	*k[]
*C:	*C:	*C:	*C:	*C:
*M2/1	*M2/1	*M2/1	*M2/1	*M2/1
*met(C)	*met(C)	*met(C)	*met(C)	*met(C)
!!section: Prima pars: Esto nobis
!!!OMD: Prima pars: Esto nobis
=1	=1	=1	=1	=1
0r	0r	0r	0r	0g
=2	=2	=2	=2	=2
0r	0c	0r	0r	1g
.	.	.	.	1a
=3	=3	=3	=3	=3
0r	1c	0r	0r	2a
.	.	.	.	1cc
.	1d	.	.	.
.	.	.	.	2b
=4	=4	=4	=4	=4
0r	2d	0r	1r	1a
.	1f	.	.	.
.	.	.	[1G	[1g
.	2e	.	.	.
=5	=5	=5	=5	=5
1r	1d	0r	1G]	1g]
[1C	[1c	.	1G	1r
=6	=6	=6	=6	=6
1C]	0c]	0r	1A	2r
.	.	.	.	1e
1C	.	.	2A	.
.	.	.	[2c	2e
=7	=7	=7	=7	=7
1D	0r	0r	2c]	2f
.	.	.	2B	1d
2D	.	.	1A	.
[2F	.	.	.	2c
=8	=8	=8	=8	=8
2F]	2r	0r	1G	2d
2E	1c	.	.	2e
1D	.	.	1F	2.f
.	2B	.	.	.
.	.	.	.	4g
=9	=9	=9	=9	=9
0C	1A	[0c	1r	2a
.	.	.	.	4g
.	.	.	.	2f
.	1G	.	2r	.
.	.	.	.	8eL
.	.	.	.	8dJ
.	.	.	2c	2e
=10	=10	=10	=10	=10
0r	1F	0c]	2.f	2f
.	.	.	.	1cc
.	.	.	4g	.
.	1r	.	2a	.
.	.	.	[2g	2b
=11	=11	=11	=11	=11
1r	0r	0c	4g]	1a
.	.	.	4f	.
.	.	.	1f	.
2r	.	.	.	1g
2C	.	.	2e	.
=12	=12	=12	=12	=12
2.F	2.D	1d	2f	1f
.	.	.	2F	.
4E	4E	.	.	.
1D	2.F	2d	2A	1r
.	.	[2f	2B	.
.	4G	.	.	.
=13	=13	=13	=13	=13
1C	4A	2f]	1c	2r
.	4B	.	.	.
.	2.c	2e	.	1cc
1r	.	1d	1r	.
.	4F	.	.	.
.	[2f	.	.	2b-X
=14	=14	=14	=14	=14
1r	2f]	0c	1F	1a
.	4e	.	.	.
.	4d	.	.	.
1C	1e	.	1G	2.g
.	.	.	.	4f
=15	=15	=15	=15	=15
2.BB-X	1f	0r	1.B-X	1d
4C	.	.	.	.
4D	1r	.	.	[1f
4E	.	.	.	.
[2F	.	.	2A	.
=16	=16	=16	=16	=16
4F]	1r	0r	1G	2f]
4BB-i	.	.	.	.
1B-X	.	.	.	2e
.	[1f	.	[1F	1d
4A	.	.	.	.
4G	.	.	.	.
=17	=17	=17	=17	=17
1A	1f]	1c	1F]	2c
.	.	.	.	2.cc
1B-i	1B-X	1d	1r	.
.	.	.	.	4b
.	.	.	.	[2b
=18	=18	=18	=18	=18
1F	1c	0f	1r	2b]
.	.	.	.	2a
1r	2.B	.	2r	1b
.	.	.	[2f	.
.	8AL	.	.	.
.	8GJ	.	.	.
=19	=19	=19	=19	=19
1F	1F	0c	2f]	2.a
.	.	.	4e	.
.	.	.	4d	8gL
.	.	.	.	8fJ
1C	1r	.	1e	1g
=20	=20	=20	=20	=20
1D	1r	2.A	2f	[0f
.	.	.	2d	.
.	.	4G	.	.
[1F	2.A	4A	1c	.
.	.	4B	.	.
.	.	[2c	.	.
.	4G	.	.	.
=21	=21	=21	=21	=21
1F]	4A	4c]	1r	1f]
.	4B	4B	.	.
.	1c	4A	.	.
.	.	4G	.	.
[1C	.	1A	2.e	1r
.	2c	.	.	.
.	.	.	4d	.
=22	=22	=22	=22	=22
0C_	0c	[0G	4e	2.e
.	.	.	4f	.
.	.	.	2.g	.
.	.	.	.	4d
.	.	.	.	4e
.	.	.	4f	4f
.	.	.	4e	2g
.	.	.	4d	.
=23	=23	=23	=23	=23
1C]	1r	0G]	2e	2c
.	.	.	2c	1cc
1r	1G	.	1d	.
.	.	.	.	2b
=24	=24	=24	=24	=24
0r	1A	0r	1c	2cc
.	.	.	.	2.a
.	1c	.	1A	.
.	.	.	.	4g
.	.	.	.	[2g
=25	=25	=25	=25	=25
1D	1d	0r	1A	2g]
.	.	.	.	2f#i
1E	1c	.	1G	[1g
=26	=26	=26	=26	=26
1G	2B	0r	0r	1g]
.	1d	.	.	.
1A	.	.	.	2r
.	2c	.	.	2a
=27	=27	=27	=27	=27
1G	1B	0r	1d	2b
.	.	.	.	2dd
1r	1A	.	1e	2dd
.	.	.	.	2cc
=28	=28	=28	=28	=28
2r	2G	0r	1g	1dd
1G	1B	.	.	.
.	.	.	1a	2r
2F	2A	.	.	2d
=29	=29	=29	=29	=29
1E	2B	1G	1g	2e
.	2c	.	.	1g
1D	1d	1A	1r	.
.	.	.	.	2f#i
=30	=30	=30	=30	=30
1C	1e	1c	2r	2.g
.	.	.	2g	.
.	.	.	.	2cc
1G	1r	1d	2.g	.
.	.	.	.	8bL
.	.	.	.	8aJ
.	.	.	.	2b
.	.	.	4f	.
=31	=31	=31	=31	=31
2r	2r	1c	1e	1cc
2A	1c	.	.	.
2B	.	1d	1r	1r
[2d	2B	.	.	.
=32	=32	=32	=32	=32
4d]	1c	1e	0r	2r
4c	.	.	.	.
1c	.	.	.	2a
.	1G	1d	.	2b
2B	.	.	.	[2dd
=33	=33	=33	=33	=33
1c	1g	1c	0r	4dd]
.	.	.	.	4cc
.	.	.	.	1cc
1G	2.g	1d	.	.
.	.	.	.	2b
.	4f	.	.	.
=34	=34	=34	=34	=34
0r	4e	1e	2r	1cc
.	4d	.	.	.
.	1g	.	2e	.
.	.	1d	2f	1r
.	2f	.	[2a	.
=35	=35	=35	=35	=35
0r	1g	1e	4a]	0r
.	.	.	4g	.
.	.	.	1g	.
.	2.a	1d	.	.
.	.	.	2f#i	.
.	8gL	.	.	.
.	8fJ	.	.	.
=36	=36	=36	=36	=36
0r	2e	1c	1g	2r
.	2e	.	.	2cc
.	2d	2.d	[1G	2b
.	2G	.	.	[2dd
.	.	4c	.	.
=37	=37	=37	=37	=37
0r	1g	2d	1G]	4dd]
.	.	.	.	4cc
.	.	2.e	.	1cc
.	1G	.	1r	.
.	.	8dL	.	.
.	.	8cJ	.	.
.	.	2d	.	2b
=38	=38	=38	=38	=38
0F	1r	0c	1.A	2.cc
.	.	.	.	4b
.	2r	.	.	4a
.	.	.	.	4g
.	2A	.	2F	[2a
=39	=39	=39	=39	=39
1E	2B	0r	1G	4a]
.	.	.	.	4g
.	2c	.	.	2.g
1D	1d	.	1A	.
.	.	.	.	4f
.	.	.	.	[2f
=40	=40	=40	=40	=40
0F	0c	0r	2r	4f]
.	.	.	.	4g
.	.	.	1A	4a
.	.	.	.	4b
.	.	.	.	2.cc
.	.	.	4F	.
.	.	.	4G	4b
=41	=41	=41	=41	=41
1F	0r	0r	4A	4a
.	.	.	4B	4g
.	.	.	2.c	2.a
1E	.	.	.	.
.	.	.	4B	4g
.	.	.	2G	[2g
=42	=42	=42	=42	=42
1D	1r	0r	2.A	2g]
.	.	.	.	2f#i
.	.	.	4G	.
[1C	[1c	.	2E	2.g
.	.	.	[2e	.
.	.	.	.	4f
=43	=43	=43	=43	=43
1C]	1c]	0r	2e]	4e
.	.	.	.	4d
.	.	.	2c	2.e
1r	1B	.	1d	.
.	.	.	.	4d
.	.	.	.	[2d
=44	=44	=44	=44	=44
0r	1A	0r	1e	4d]
.	.	.	.	4c
.	.	.	.	2.c
.	[1c	.	2.A	.
.	.	.	.	4d
.	.	.	.	4e
.	.	.	4B	4f
=45	=45	=45	=45	=45
0r	1c]	0r	4c	2.g
.	.	.	4d	.
.	.	.	1e	.
.	.	.	.	4f
.	1c	.	.	4e
.	.	.	.	4d
.	.	.	2c	[2e
=46	=46	=46	=46	=46
0r	1B	0r	1d	4e]
.	.	.	.	4d
.	.	.	.	1d
.	1A	.	1e	.
.	.	.	.	2c#i
=47	=47	=47	=47	=47
0r	2r	0f	2d	2.d
.	2.D	.	2.f	.
.	.	.	.	4e
.	.	.	.	4f
.	4E	.	4e	4g
.	4F	.	[2d	[2a
.	4G	.	.	.
=48	=48	=48	=48	=48
0r	1A	1e	2d]	4a]
.	.	.	.	4g
.	.	.	2c	2.g
.	2.B-X	1d	2d	.
.	.	.	.	4f
.	.	.	2B-X	[2f
.	8AL	.	.	.
.	8GJ	.	.	.
=49	=49	=49	=49	=49
0r	[0F	0f	1A	4f]
.	.	.	.	4g
.	.	.	.	4a
.	.	.	.	4b
.	.	.	[1a	2.cc
.	.	.	.	4b
=50	=50	=50	=50	=50
1D	1F]	1f	2a]	4a
.	.	.	.	4g
.	.	.	2f	2.a
2C	1r	1e	1g	.
.	.	.	.	4g
2C	.	.	.	[2g
=51	=51	=51	=51	=51
1D	1A	[0d	2r	2g]
.	.	.	2a	2f#i
1r	1G	.	2d	1g
.	.	.	[2g	.
=52	=52	=52	=52	=52
1D	1A	1d]	2g]	0r
.	.	.	2f	.
1C	2.c	1r	1e	.
.	4B	.	.	.
=53	=53	=53	=53	=53
1D	4A	0r	1d	1r
.	4G	.	.	.
.	1A	.	.	.
1F	.	.	2r	1a
.	4G	.	2A	.
.	4F	.	.	.
=54	=54	=54	=54	=54
0r	1E	0r	2B	1g
.	.	.	2c	.
.	1D	.	2F	1a
.	.	.	[2f	.
=55	=55	=55	=55	=55
0r	1A	0r	4f]	2.cc
.	.	.	4e	.
.	.	.	2c	.
.	.	.	.	4b
.	[1D	.	2.d	4a
.	.	.	.	4g
.	.	.	.	[2a
.	.	.	4e	.
=56	=56	=56	=56	=56
0r	1D]	1d	4f	2a]
.	.	.	4g	.
.	.	.	2.a	4g
.	.	.	.	4f
.	1A	1c	.	1e
.	.	.	4g	.
.	.	.	[2g	.
=57	=57	=57	=57	=57
0r	2.B-i	1d	4g]	1d
.	.	.	4f	.
.	.	.	2.f	.
.	8AL	.	.	.
.	8GJ	.	.	.
.	1F	2.f	.	1a
.	.	.	4e	.
.	.	.	4d	.
.	.	4e	4c	.
=58	=58	=58	=58	=58
0r	0r	4d	4B	2r
.	.	4c	4A	.
.	.	1d	2.f	1a
.	.	.	4e	.
.	.	2B	[2d	2g
=59	=59	=59	=59	=59
0r	0r	1A	2d]	2a
.	.	.	2c	2cc
.	.	1G	2d	2b
.	.	.	2g	2g
=60	=60	=60	=60	=60
1A	0r	0r	2f	2a
.	.	.	2.e	2cc
1G	.	.	.	1b
.	.	.	4d	.
.	.	.	2g	.
=61	=61	=61	=61	=61
1A	0r	0r	2f	1a
.	.	.	2.e	.
2.c	.	.	.	2r
.	.	.	4d	.
.	.	.	[2c	2g
4B	.	.	.	.
=62	=62	=62	=62	=62
4A	1r	0r	4c]	2a
4G	.	.	4B	.
1A	.	.	4A	2.cc
.	.	.	4G	.
.	2r	.	1F	.
.	.	.	.	4b
4G	[2d	.	.	[2a
4F	.	.	.	.
=63	=63	=63	=63	=63
1E	2d]	0r	1G	4a]
.	.	.	.	4g
.	2c	.	.	2.g
1D	1d	.	1A	.
.	.	.	.	4f
.	.	.	.	[2f
=64	=64	=64	=64	=64
[0D	2.f	[0dl	1F	4f]
.	.	.	.	4e
.	.	.	.	4d
.	4e	.	.	4c
.	4d	.	2r	4B
.	4c	.	.	4A
.	[2d	.	[2f	[2a
=65	=65	=65	=65	=65
0D]	2d]	0d_	4f]	2a]
.	.	.	4e	.
.	2B	.	2.d	1g
.	1A	.	.	.
.	.	.	4c	.
.	.	.	2A	2f#i
=66	=66	=66	=66	=66
00Gl	00Gl	00d]	00Bl	00gl
==	==	==	==	==
*-	*-	*-	*-	*-
!!!system-decoration: [*]
!!!RDF**kern: i = editorial accidental
!!!RDF**kern: l = terminal long
!!!ENC: Benjamin Ory
!!!END: 2021/1/17
!!!EED: Benjamin Ory
!!!EEV: 2021/04/28
!!!YEC: Copyright 2021 Benjamin Ory, All Rights Reserved
!!!ONB: Translated from MusicXML on 2021/04/28
